svg/u1f3b6.svg

<svg viewBox="0 0 128 128" xmlns="http://www.w3.org/2000/svg">
  <path d="M46.91,39.43c-0.3-13.21-2.51-15.82-14.35-23.5c-5.54-3.6-6.02-7.02-7.47-7.37 c-0.85-0.21-1.66,0.44-1.64,1.29l0.97,42.2c0.01,0.57-0.48,1.01-1.04,0.93c-4.8-0.72-10.6,1.43-15.02,6.06 C2.01,65.69,0.9,74.96,5.9,79.73c5,4.77,14.2,3.24,20.57-3.42c4.06-4.26,5.69-8.98,5.53-14.1L31.2,27.24 c-0.02-0.68,0.65-1.06,1.3-0.87c2.44,0.71,9.25,2.93,11.43,14.47C44.34,43,46.99,42.85,46.91,39.43z" fill="#546E7A"/>
  <path d="M124.94,46.65c-0.72-13.19-3.01-15.73-15.07-23.05c-5.65-3.42-6.24-6.83-7.69-7.14 c-0.85-0.18-1.65,0.49-1.6,1.34l2.29,42.15c0.03,0.56-0.45,1.03-1.01,0.96c-4.82-0.57-10.55,1.76-14.82,6.53 c-6.15,6.86-6.97,16.16-1.82,20.77c5.14,4.61,14.3,2.79,20.45-4.06c3.93-4.38,5.41-9.15,5.08-14.27l-1.88-34.92 c-0.04-0.68,0.62-1.08,1.27-0.91c2.46,0.63,9.34,2.64,11.87,14.11C122.48,50.3,125.12,50.07,124.94,46.65z" fill="#546E7A"/>
  <path d="M77.5,68.46c0.61-13.2-1.42-15.96-12.69-24.44c-5.28-3.97-5.53-7.42-6.94-7.87 c-0.83-0.27-1.69,0.32-1.73,1.18L54.21,79.5c-0.03,0.56-0.55,0.98-1.1,0.85c-4.74-1.05-10.67,0.7-15.4,5.01 c-6.81,6.21-8.55,15.38-3.89,20.48c4.66,5.1,13.95,4.21,20.75-2c4.35-3.97,6.3-8.57,6.48-13.69l1.62-34.93 c0.03-0.68,0.72-1.01,1.36-0.77c2.38,0.88,9.03,3.56,10.4,15.22C74.69,71.85,77.35,71.89,77.5,68.46z" fill="#546E7A"/>
</svg>

<svg viewBox="0 0 128 128" xmlns="http://www.w3.org/2000/svg">
  <defs/>
  <path d="M46.91,39.43 C46.61,26.22 44.4,23.61 32.56,15.93 C27.02,12.33 26.54,8.91 25.09,8.56 C24.24,8.35 23.43,9 23.45,9.85 L24.42,52.05 C24.43,52.62 23.94,53.06 23.38,52.98 C18.58,52.26 12.78,54.41 8.36,59.04 C2.01,65.69 0.9,74.96 5.9,79.73 C10.9,84.5 20.1,82.97 26.47,76.31 C30.53,72.05 32.16,67.33 32,62.21 L31.2,27.24 C31.18,26.56 31.85,26.18 32.5,26.37 C34.94,27.08 41.75,29.3 43.93,40.84 C44.34,43 46.99,42.85 46.91,39.43 Z" fill="#546E7A"/>
  <path d="M124.94,46.65 C124.22,33.46 121.93,30.92 109.87,23.6 C104.22,20.18 103.63,16.77 102.18,16.46 C101.33,16.28 100.53,16.95 100.58,17.8 L102.87,59.95 C102.9,60.51 102.42,60.98 101.86,60.91 C97.04,60.34 91.31,62.67 87.04,67.44 C80.89,74.3 80.07,83.6 85.22,88.21 C90.36,92.82 99.52,91 105.67,84.15 C109.6,79.77 111.08,75 110.75,69.88 L108.87,34.96 C108.83,34.28 109.49,33.88 110.14,34.05 C112.6,34.68 119.48,36.69 122.01,48.16 C122.48,50.3 125.12,50.07 124.94,46.65 Z" fill="#546E7A"/>
  <path d="M77.5,68.46 C78.11,55.26 76.08,52.5 64.81,44.02 C59.53,40.05 59.28,36.6 57.87,36.15 C57.04,35.88 56.18,36.47 56.14,37.33 L54.21,79.5 C54.18,80.06 53.66,80.48 53.11,80.35 C48.37,79.3 42.44,81.05 37.71,85.36 C30.9,91.57 29.16,100.74 33.82,105.84 C38.48,110.94 47.77,110.05 54.57,103.84 C58.92,99.87 60.87,95.27 61.05,90.15 L62.67,55.22 C62.7,54.54 63.39,54.21 64.03,54.45 C66.41,55.33 73.06,58.01 74.43,69.67 C74.69,71.85 77.35,71.89 77.5,68.46 Z" fill="#546E7A"/>
</svg>
